X: 4
T: Caledonian
B: sean kenan irish music
M:4/4
Q: 1/4=125
K:D
V:1 
|:"D"A2FA "Bm"DAFA|"G"GFEF "A"GBdB|"D"A2(3FED "Bm"ADFA|"G"GBAG "A"FADA|
"D"A2FA "Bm"DAFA|"G"GFEF "A"GBdB|"D"A2(3FED "Bm"ADFA|"G"GBAG "A"FADA|
"D"A2FA "Bm"DAFA|"G"GFEF "A"GBdB|"D"A2(3FED "Bm"ADFA|"G"GBAG "A"FADA|
"D"F2dF "Bm"eFdF |"G"GFEF "A"GBdB|"D"A2 (3FED "Bm"ADFA|"G"(3Bcd AG "A"FADB|
|:"D"Addc "Bm"d3e|"A"cdef "G"gfed|"A"(3cBA "F#m"eA fA eA|"A"cdef "G"gfeg|
"D"fa"Em"eg "D"(3fga "Em"eg |"Bm"fded "A"cdef|"D"af (3gfe "Bm"fdec|"A"ABAG "Bm"FADB:|
% abcbook-tune_id 8424


% abcbook-boost 0
% abcbook-tablature 
% abcbook-transpose 
% abcbook-lastupdated 1656501378528
% abcbook-soundfonts 
% abcbook-repeats 1


